icons-dark/mimetypes/16/image-gif.svg

<?xml version="1.0" encoding="UTF-8" standalone="no"?>

<!-- Created with Inkscape (http://www.inkscape.org/) -->
<svg width="16" version="1.1" xmlns="http://www.w3.org/2000/svg" height="16" viewBox="0 0 16 16" xmlns:inkscape="http://www.inkscape.org/namespaces/inkscape">
 <defs id="defs4"/>
 <metadata id="metadata7"/>
 <path inkscape:label="Capa 1" inkscape:groupmode="layer" style="fill:#32cab4" id="rect4139" d="M 2 2 L 2 10.992188 L 1 11.992188 L 1 12 L 2 12 L 2 14 L 14 14 L 14 11.001953 L 15 11.001953 L 15 10.992188 L 14 9.9921875 L 14 2 L 2 2 z M 3 3 L 13 3 L 13 8.9921875 L 9.0058594 5 L 9 5 L 9 5.0019531 L 8.9941406 5.0019531 L 6.4980469 7.4941406 L 6.0039062 7 L 6 7 L 5.9960938 7 L 3 9.9941406 L 3 3 z M 5 4 C 4.446 4 4 4.446 4 5 C 4 5.554 4.446 6 5 6 C 5.554 6 6 5.554 6 5 C 6 4.446 5.554 4 5 4 z M 9 6.4101562 L 13 10.408203 L 13 11 L 10.007812 11 L 7.2070312 8.203125 L 9 6.4101562 z M 6 8.4101562 L 6.5 8.9101562 L 8.5898438 11 L 3.4082031 11 L 6 8.4101562 z M 3 12 L 9.5898438 12 L 9.5917969 12.001953 L 11 12.001953 L 11 12 L 13 12 L 13 13 L 3 13 L 3 12 z "/>
</svg>

<svg width="16" xmlns="http://www.w3.org/2000/svg" height="16" viewBox="0 0 16 16">
 <path fill="#32cab4" d="m2 2v8.992l-1 1v.008h1v2h12v-2.998h1v-.01l-1-1v-7.992zm1 1h10v5.992l-3.994-3.992h-.006v.002h-.006l-2.496 2.492-.494-.494h-.008l-2.996 2.994zm2 1c-.554 0-1 .446-1 1 0 .554.446 1 1 1 .554 0 1-.446 1-1 0-.554-.446-1-1-1m4 2.41l4 3.998v.592h-2.992l-2.801-2.797zm-3 2l2.59 2.59h-5.182zm-3 3.59h6.59l.002.002h1.408v-.002h2v1h-10z"/>
</svg>
